src/images/pricing-section-callout.svg

<svg width="484" height="150" fill="none" xmlns="http://www.w3.org/2000/svg"><path d="M16.8761 74.5522c1.7124-14.3999.3211-29.7817 7.1706-42.4361C34.5349 12.698 59.3641 7.8981 80.9827 5.9344c72.6683-6.3272 145.7653-3.709 218.6473-1.2 41.846 1.5273 82.514.6546 123.504 10.5818 17.766 4.2545 36.495 10.7999 47.09 25.8543 6.528 9.2727 9.204 20.7272 10.809 32.0726 4.495 32.0729-6.528 47.0179-36.387 55.3089-22.047 6.109-44.629 9.709-67.318 12.436-60.574 7.309-121.577 8.182-182.473 5.891-30.074-1.091-60.04-3.055-90.113-5.345-13.9132-1.091-27.8262-2.837-41.7391-3.6-11.4514-.655-23.1169.545-33.07-6.655-6.1003-4.473-8.6688-10.909-13.0568-16.8-1.7123-2.182-4.1738-4.254-6.4213-5.782-.9548-.648-8.1337-4.69-8.4548-4.254 7.5986-9.3819 13.3778-17.4546 14.8761-29.8908Z" fill="#fff" stroke="#1B383C" stroke-width="3" stroke-miterlimit="10" stroke-linejoin="round"/></svg>

<svg width="484" height="150" viewBox="0 0 484 150" fill="none" xmlns="http://www.w3.org/2000/svg">
<path d="M16.8761 74.5522C18.5885 60.1523 17.1972 44.7705 24.0467 32.1161C34.5349 12.698 59.3641 7.89802 80.9827 5.9344C153.651 -0.392835 226.748 2.22533 299.63 4.73441C341.476 6.26167 382.144 5.38895 423.134 15.3162C440.9 19.5707 459.629 26.1161 470.224 41.1705C476.752 50.4432 479.428 61.8977 481.033 73.2431C485.528 105.316 474.505 120.261 444.646 128.552C422.599 134.661 400.017 138.261 377.328 140.988C316.754 148.297 255.751 149.17 194.855 146.879C164.781 145.788 134.815 143.824 104.742 141.534C90.8288 140.443 76.9158 138.697 63.0029 137.934C51.5515 137.279 39.886 138.479 29.9329 131.279C23.8326 126.806 21.2641 120.37 16.8761 114.479C15.1638 112.297 12.7023 110.225 10.4548 108.697C9.5 108.049 2.32107 104.007 2 104.443C9.59861 95.0611 15.3778 86.9884 16.8761 74.5522Z" fill="white" stroke="#1B383C" stroke-width="3" stroke-miterlimit="10" stroke-linejoin="round"/>
</svg>
